X: 106105
Q:"Strathspey."
M: C
L: 1/16
K: D
|: A2 |\
dd3 f3ud vg3veuf3ud | BB3 e3ud cA3 A3uc |\
dd3 f3ud vg3veuf3ud | vB3ue dcBA d4-d2 :|
|: uB2 |\


